packages/sources/assets/src/assets/flag-qa.svg

<svg width="28" height="20" viewBox="0 0 28 20" fill="none" xmlns="http://www.w3.org/2000/svg">
<rect x="0.25" y="0.25" width="27.5" height="19.5" rx="1.75" fill="white" stroke="#F5F5F5" stroke-width="0.5"/>
<mask id="mask0_503_2501" style="mask-type:alpha" maskUnits="userSpaceOnUse" x="0" y="0" width="28" height="20">
<rect x="0.25" y="0.25" width="27.5" height="19.5" rx="1.75" fill="white" stroke="white" stroke-width="0.5"/>
</mask>
<g mask="url(#mask0_503_2501)">
<path fill-rule="evenodd" clip-rule="evenodd" d="M28 0H8L10 1.33333L8 2.66667L10 4L8 5.33333L10 6.66667L8 8L10 9.33333L8 10.6667L10 12L8 13.3333L10 14.6667L8 16L10 17.3333L8 18.6667L10 20H28V0Z" fill="#A6264C"/>
</g>
</svg>

<svg width="28" height="20" fill="none" xmlns="http://www.w3.org/2000/svg"><rect x=".25" y=".25" width="27.5" height="19.5" rx="1.75" fill="#fff" stroke="#F5F5F5" stroke-width=".5"/><mask id="a" style="mask-type:alpha" maskUnits="userSpaceOnUse" x="0" y="0" width="28" height="20"><rect x=".25" y=".25" width="27.5" height="19.5" rx="1.75" fill="#fff" stroke="#fff" stroke-width=".5"/></mask><g mask="url(#a)"><path fill-rule="evenodd" clip-rule="evenodd" d="M28 0H8l2 1.333-2 1.334L10 4 8 5.333l2 1.334L8 8l2 1.333-2 1.334L10 12l-2 1.333 2 1.334L8 16l2 1.333-2 1.334L10 20h18V0Z" fill="#A6264C"/></g></svg>
